svg/map/earth_fill.svg

<?xml version="1.0" encoding="UTF-8"?>
<svg width="24px" height="24px" viewBox="0 0 24 24" version="1.1" xmlns="http://www.w3.org/2000/svg" xmlns:xlink="http://www.w3.org/1999/xlink">
    <title>earth_fill</title>
    <g id="页面-1" stroke="none" stroke-width="1" fill="none" fill-rule="evenodd">
        <g id="Map" transform="translate(-96.000000, -48.000000)">
            <g id="earth_fill" transform="translate(96.000000, 48.000000)">
                 <path d="M24,0 L24,24 L0,24 L0,0 L24,0 Z M12.5934901,23.257841 L12.5819402,23.2595131 L12.5108777,23.2950439 L12.4918791,23.2987469 L12.4918791,23.2987469 L12.4767152,23.2950439 L12.4056548,23.2595131 C12.3958229,23.2563662 12.3870493,23.2590235 12.3821421,23.2649074 L12.3780323,23.275831 L12.360941,23.7031097 L12.3658947,23.7234994 L12.3769048,23.7357139 L12.4804777,23.8096931 L12.4953491,23.8136134 L12.4953491,23.8136134 L12.5071152,23.8096931 L12.6106902,23.7357139 L12.6232938,23.7196733 L12.6232938,23.7196733 L12.6266527,23.7031097 L12.609561,23.275831 C12.6075724,23.2657013 12.6010112,23.2592993 12.5934901,23.257841 L12.5934901,23.257841 Z M12.8583906,23.1452862 L12.8445485,23.1473072 L12.6598443,23.2396597 L12.6498822,23.2499052 L12.6498822,23.2499052 L12.6471943,23.2611114 L12.6650943,23.6906389 L12.6699349,23.7034178 L12.6699349,23.7034178 L12.678386,23.7104931 L12.8793402,23.8032389 C12.8914285,23.8068999 12.9022333,23.8029875 12.9078286,23.7952264 L12.9118235,23.7811639 L12.8776777,23.1665331 C12.8752882,23.1545897 12.8674102,23.1470016 12.8583906,23.1452862 L12.8583906,23.1452862 Z M12.1430473,23.1473072 C12.1332178,23.1423925 12.1221763,23.1452606 12.1156365,23.1525954 L12.1099173,23.1665331 L12.0757714,23.7811639 C12.0751323,23.7926639 12.0828099,23.8018602 12.0926481,23.8045676 L12.108256,23.8032389 L12.3092106,23.7104931 L12.3186497,23.7024347 L12.3186497,23.7024347 L12.3225043,23.6906389 L12.340401,23.2611114 L12.337245,23.2485176 L12.337245,23.2485176 L12.3277531,23.2396597 L12.1430473,23.1473072 Z" id="MingCute" fill-rule="nonzero"></path>
                <path d="M11.9999,3.00008 C12.1107,3.00008 12.3642,3.06519 12.7351,3.4655 C13.0971,3.85632 13.4788,4.47391 13.8261,5.31188 C14.0485,5.84857 14.2493,6.45733 14.4193,7.12446 C13.6398,7.04338 12.8298,7.00008 11.9999,7.00008 C11.17,7.00008 10.36,7.04338 9.58057,7.12446 C9.75056,6.45733 9.95129,5.84857 10.1737,5.31188 C10.521,4.47391 10.9028,3.85632 11.2648,3.4655 C11.6356,3.06519 11.8891,3.00008 11.9999,3.00008 Z M9.18526,9.18543 C10.0701,9.0665 11.0153,9.00008 11.9999,9.00008 C12.9845,9.00008 13.9297,9.0665 14.8146,9.18543 C14.9335,10.0703 14.9999,11.0155 14.9999,12.0001 C14.9999,12.9847 14.9335,13.9299 14.8146,14.8147 C13.9297,14.9337 12.9845,15.0001 11.9999,15.0001 C11.0153,15.0001 10.0701,14.9337 9.18526,14.8147 C9.06634,13.9299 8.99992,12.9847 8.99992,12.0001 C8.99992,11.0155 9.06634,10.0703 9.18526,9.18543 Z M7.12429,14.4194 C7.04321,13.64 6.99992,12.83 6.99992,12.0001 C6.99992,11.1702 7.04321,10.3602 7.12429,9.58073 C6.45716,9.75073 5.84841,9.95145 5.31171,10.1739 C4.47374,10.5212 3.85615,10.9029 3.46533,11.2649 C3.06503,11.6358 2.99992,11.8893 2.99992,12.0001 C2.99992,12.1109 3.06503,12.3644 3.46533,12.7352 C3.85615,13.0972 4.47374,13.479 5.31171,13.8263 C5.84841,14.0487 6.45716,14.2494 7.12429,14.4194 Z M9.58057,16.8757 C10.36,16.9568 11.17,17.0001 11.9999,17.0001 C12.8298,17.0001 13.6398,16.9568 14.4193,16.8757 C14.2493,17.5428 14.0485,18.1516 13.8261,18.6883 C13.4788,19.5263 13.0971,20.1438 12.7351,20.5347 C12.3642,20.935 12.1107,21.0001 11.9999,21.0001 C11.8891,21.0001 11.6356,20.935 11.2648,20.5347 C10.9028,20.1438 10.521,19.5263 10.1737,18.6883 C9.95129,18.1516 9.75056,17.5428 9.58057,16.8757 Z M16.8755,14.4194 C16.9566,13.64 16.9999,12.83 16.9999,12.0001 C16.9999,11.1702 16.9566,10.3602 16.8755,9.58073 C17.5427,9.75073 18.1514,9.95145 18.6881,10.1739 C19.5261,10.5212 20.1437,10.9029 20.5345,11.2649 C20.9348,11.6358 20.9999,11.8893 20.9999,12.0001 C20.9999,12.1109 20.9348,12.3644 20.5345,12.7352 C20.1437,13.0972 19.5261,13.479 18.6881,13.8263 C18.1514,14.0487 17.5427,14.2494 16.8755,14.4194 Z M16.5472,7.45285 C16.3239,6.37847 16.0264,5.3972 15.6737,4.54615 C15.3072,3.6617 14.8656,2.88066 14.3553,2.27905 C17.9862,3.15569 20.8443,6.01376 21.7209,9.64473 C21.1193,9.13442 20.3383,8.69283 19.4539,8.32628 C18.6028,7.97356 17.6215,7.6761 16.5472,7.45285 Z M16.5472,16.5473 C16.3239,17.6217 16.0264,18.603 15.6737,19.454 C15.3072,20.3385 14.8656,21.1195 14.3553,21.7211 C17.9862,20.8445 20.8443,17.9864 21.7209,14.3554 C21.1193,14.8657 20.3383,15.3073 19.4539,15.6739 C18.6028,16.0266 17.6215,16.3241 16.5472,16.5473 Z M9.64456,21.7211 C9.13425,21.1195 8.69267,20.3385 8.32611,19.454 C7.9734,18.603 7.67593,17.6217 7.45268,16.5473 C6.3783,16.3241 5.39704,16.0266 4.54598,15.6739 C3.66154,15.3073 2.88049,14.8657 2.27888,14.3554 C3.15552,17.9864 6.01359,20.8445 9.64456,21.7211 Z M7.45268,7.45285 C7.67593,6.37846 7.9734,5.3972 8.32611,4.54615 C8.69267,3.6617 9.13425,2.88066 9.64457,2.27905 C6.01359,3.15569 3.15552,6.01376 2.27888,9.64473 C2.88049,9.13442 3.66154,8.69283 4.54598,8.32628 C5.39704,7.97356 6.3783,7.6761 7.45268,7.45285 Z" id="形状" fill="#09244B"></path>
            </g>
        </g>
    </g>
</svg>

<svg xmlns="http://www.w3.org/2000/svg" width="24" height="24"><g fill="none" fill-rule="evenodd"><path d="M24 0v24H0V0h24ZM12.593 23.258l-.011.002-.071.035-.02.004-.014-.004-.071-.035c-.01-.004-.019-.001-.024.005l-.004.01-.017.428.005.02.01.013.104.074.015.004.012-.004.104-.074.012-.016.004-.017-.017-.427c-.002-.01-.009-.017-.017-.018Zm.265-.113-.013.002-.185.093-.01.01-.003.011.018.43.005.012.008.007.201.093c.012.004.023 0 .029-.008l.004-.014-.034-.614c-.003-.012-.01-.02-.02-.022Zm-.715.002a.023.023 0 0 0-.027.006l-.006.014-.034.614c0 .012.007.02.017.024l.015-.002.201-.093.01-.008.004-.011.017-.43-.003-.012-.01-.01-.184-.092Z"/><path fill="#09244B" d="M12 3c.11 0 .364.065.735.466.362.39.744 1.008 1.091 1.846.223.537.423 1.145.593 1.812a23.423 23.423 0 0 0-4.838 0c.17-.667.37-1.275.593-1.812.347-.838.729-1.456 1.09-1.847.372-.4.625-.465.736-.465ZM9.185 9.185A21.19 21.19 0 0 1 12 9c.985 0 1.93.066 2.815.185.119.885.185 1.83.185 2.815 0 .985-.066 1.93-.185 2.815A21.18 21.18 0 0 1 12 15c-.985 0-1.93-.066-2.815-.185A21.19 21.19 0 0 1 9 12c0-.985.066-1.93.185-2.815Zm-2.06 5.234a23.42 23.42 0 0 1 0-4.838c-.668.17-1.277.37-1.813.593-.838.347-1.456.729-1.847 1.09-.4.372-.465.625-.465.736 0 .11.065.364.465.735.391.362 1.009.744 1.847 1.091a13.41 13.41 0 0 0 1.812.593Zm2.456 2.457a23.415 23.415 0 0 0 4.838 0c-.17.667-.37 1.276-.593 1.812-.347.838-.729 1.456-1.09 1.847-.372.4-.625.465-.736.465-.11 0-.364-.065-.735-.465-.362-.391-.744-1.009-1.091-1.847a13.409 13.409 0 0 1-.593-1.812Zm7.294-2.457a23.414 23.414 0 0 0 0-4.838 13.4 13.4 0 0 1 1.813.593c.838.347 1.456.729 1.847 1.09.4.372.465.625.465.736 0 .11-.065.364-.465.735-.391.362-1.009.744-1.847 1.091-.537.223-1.145.423-1.812.593Zm-.328-6.966a16.32 16.32 0 0 0-.873-2.907c-.367-.884-.808-1.665-1.319-2.267a10.016 10.016 0 0 1 7.366 7.366c-.602-.51-1.383-.952-2.267-1.319a16.318 16.318 0 0 0-2.907-.873Zm0 9.094a16.318 16.318 0 0 1-.873 2.907c-.367.884-.808 1.665-1.319 2.267a10.016 10.016 0 0 0 7.366-7.366c-.602.51-1.383.952-2.267 1.319-.851.353-1.832.65-2.907.873Zm-6.902 5.174c-.51-.602-.952-1.383-1.319-2.267a16.314 16.314 0 0 1-.873-2.907 16.312 16.312 0 0 1-2.907-.873c-.884-.367-1.666-.808-2.267-1.319a10.016 10.016 0 0 0 7.366 7.366ZM7.453 7.453c.223-1.075.52-2.056.873-2.907.367-.884.808-1.665 1.319-2.267a10.016 10.016 0 0 0-7.366 7.366c.601-.51 1.383-.952 2.267-1.319.851-.352 1.832-.65 2.907-.873Z"/></g></svg>
